X: 15269
T: Girl Who Broke My Heart, The
R: reel
M: 4/4
K: Gmixolydian
|:dc|BGGF ECCE|DGG^F GABc|de^fd cBG^F|DGGE F2dc|
BGG^F ECCE|DGG^F GABc|de^fd cBG^F|DGG^F G2:|
|:D^F|(3GBG Bd gdBG|F2Ac gdB^F|G2Bd gdBd|~c3d cA^FA|
G2Bd gdBG|F2Ac gdB^F|GABd cBG^F|DGG^F G2:|

